X:11
T: Da suan zao
N: C0012
O: China, Shanxi
S: MM, ZHONGGUO MINGE XUAN S.145]
N: DOUBLETTE VON CUT 6
N: +++ NOTATION UEBERNOMMEN. BITTE PRUEFEN. ++++noch zuordnen!!! +++
R: Xiaodiao.  Da suanzao qingjing]
M: 2/4
L: 1/16
K: F
c2c2G2GA | c2c2G2GA | B2Bcf2d2 | c8
B2Bcf2d2 | c8
G2c2A2G2 | F2F2D2C2 | F2F2D2C2
F3Gc2A2 | G6A2 | F2GAF2D2 | C8

